resources/haticons/SVG/mail2.svg

<!-- Generated by IcoMoon.io -->
<svg version="1.1" xmlns="http://www.w3.org/2000/svg" width="24" height="24" viewBox="0 0 24 24">
<title>mail2</title>
<path d="M20 0h-16c-2.2 0-4 1.8-4 4.001v15.999c0 2.202 1.8 4 4 4h16c2.2 0 4-1.799 4-4.001v-15.999c0-2.2-1.8-4.001-4-4.001zM20 3c0.187 0 0.364 0.055 0.516 0.149l-8.516 7.041-8.516-7.041c0.152-0.094 0.329-0.149 0.517-0.149h16zM4 21c-0.045 0-0.090-0.003-0.133-0.010l5.288-7.335-0.686-0.686-5.47 5.47v-14.324l9 10.884 9-10.884v14.323l-5.47-5.47-0.686 0.686 5.288 7.335c-0.044 0.006-0.088 0.010-0.133 0.010h-16z"></path>
</svg>

<svg xmlns="http://www.w3.org/2000/svg" width="24" height="24"><path d="M20 0H4C1.8 0 0 1.8 0 4.001V20c0 2.202 1.8 4 4 4h16c2.2 0 4-1.799 4-4.001V4c0-2.2-1.8-4.001-4-4.001zm0 3a.98.98 0 0 1 .516.149L12 10.19 3.484 3.149A.98.98 0 0 1 4.001 3h16zM4 21a.833.833 0 0 1-.133-.01l5.288-7.335-.686-.686-5.47 5.47V4.115l9 10.884 9-10.884v14.323l-5.47-5.47-.686.686 5.288 7.335a.98.98 0 0 1-.133.01h-16z"/></svg>
